X: 1
T: the Lisnagun Jig
C: Brendan Ring
R: jig
Z: 2020 John Chambers <jc:trillian.mit.edu>
S: Tunes 'N Stuff with Audrey Knuth 2021-5-19
F: https://drive.google.com/drive/u/0/folders/118E94GvllJOH4htP_E10A3PFcOAkjJGj
M: 6/8
L: 1/8
K: C
|:\
"C"cAG  uc3  | "Am"deg e3 | "F"de(g e)d(c | "Dm"d)c(A c)A(vG  |
"C"c)AG uc3  | "Am"deg e3 | "F"de(g e)d(c |  "G"d)cA "C"c3   :|
"C"vg3 (edc) | "Am"deg e3 | "F"de(g e)d(c | "Dm"d)c(A   c)AG  |
"C"ug3 (ed)c | "Am"deg e3 | "F"de(g e)d(c |  "G"d)cA "C"(cde) |
"C" g3 (edc) | "Am"deg e3 | "F"de(g e)d(c | "Dm"d)cA   (ucAG) |
"C"cAG  c3   | "Am"deg e3 | "F"de(g e)d(c |  "G"d)cA "C" c3  |]
